X:3
T: Rocky Road to Dublin
M: C|
L: 1/8
R: reel
K: Amix
"A"e2)e2c4| ABAG EGED|"C"=CC C2 GAGD |=CC C2 G2 e2- |
"A"e2e2c4| ABAG EGED|"C"=CC C2 GAG2 |x"A""<(#)"cA3 A2 e2- :|
|:"A"edeg abag|edeg abag| "G"edef gagf|edef g2 e2|
"A"a3a -abag|egab a3g|"G"edef gage|"C"=c6 e2-:|
%%text End on that C
%%scale .5
%%text 4/25/13 

#include "LeftHeader.h"
%%text Set 116 NEFFA 2013 Quebecois Set
%%scale .9
$SmallLMargin
$SmallRMargin
